components/Common/Svg/svgs/resize.svg

<svg width="40" height="40" viewBox="0 0 40 40" fill="none" xmlns="http://www.w3.org/2000/svg">
<path fill-rule="evenodd" clip-rule="evenodd" d="M4 32.3333C4 34.356 5.64404 36 7.66675 36H15H32.3333C34.356 36 36 34.356 36 32.3333V7.66675C36 5.64404 34.356 4 32.3333 4H7.66675C5.64404 4 4 5.64404 4 7.66675V25V32.3333ZM16 34H32.3333C33.252 34 34 33.252 34 32.3333V7.66675C34 6.74805 33.252 6 32.3333 6H7.66675C6.74805 6 6 6.74805 6 7.66675V24H15C15.552 24 16 24.448 16 25V34ZM6 26H14V34H7.66675C6.74805 34 6 33.252 6 32.3333V26ZM28.6667 19C28.6667 19.552 29.1147 20 29.6667 20C30.2188 20 30.6667 19.552 30.6667 19V10.3913C30.6828 10.1161 30.5857 9.83556 30.3755 9.6252C30.1688 9.41861 29.8942 9.32128 29.6237 9.33321H21C20.448 9.33321 20 9.78121 20 10.3332C20 10.8852 20.448 11.3332 21 11.3332H27.2527L17.6274 20.9587C17.2368 21.3493 17.2368 21.9826 17.6274 22.3732C17.822 22.5693 18.0781 22.6667 18.334 22.6667C18.5901 22.6667 18.8459 22.5693 19.042 22.3732L28.6667 12.7487V19Z" fill="#161616"/>
</svg>

<svg width="40" height="40" viewBox="0 0 40 40" fill="none" xmlns="http://www.w3.org/2000/svg"><path fill-rule="evenodd" clip-rule="evenodd" d="M4 32.333A3.67 3.67 0 0 0 7.667 36H32.333A3.67 3.67 0 0 0 36 32.333V7.667A3.67 3.67 0 0 0 32.333 4H7.667A3.67 3.67 0 0 0 4 7.667V32.333ZM16 34h16.333c.919 0 1.667-.748 1.667-1.667V7.667C34 6.748 33.252 6 32.333 6H7.667A1.67 1.67 0 0 0 6 7.667V24h9a1 1 0 0 1 1 1v9ZM6 26h8v8H7.667A1.669 1.669 0 0 1 6 32.333V26Zm22.667-7a1 1 0 0 0 2 0v-8.609a.998.998 0 0 0-1.043-1.058H21a1 1 0 0 0 0 2h6.253l-9.626 9.626a1 1 0 1 0 1.415 1.414l9.625-9.624V19Z" fill="#161616"/></svg>
